!!!!SEGMENT: 068-1-MEIf-002.krn
!!!COM: Chopin, Fryderyk
!!!OTL: Mazurka No. 6.
!!!OPS: Op. 68
!!!PTL: Œuvre Posthumes pour Piano
!!!PPR: Meissonnier fils
!!!PPP: Paris
!!!NIFC-rismID: 300605107
!!!NIFC-shelfmark: PL-Wbfc 840/n
!!!OMD: Lento.
!!!OMD: ([quarter]=116)
!!!system-decoration: {(s1,s2)}
**kern	**kern	**dynam
*part1	*part1	*part1
*	*I"Nº.6.	*
*staff2	*staff1	*
*clefF4	*clefG2	*
*k[]	*k[]	*
*M3/4	*M3/4	*
*MM116	*MM116	*
*>[A,B,B1,B,B2,C,C,D,E]	*>[A,B,B1,B,B2,C,C,D,E]	*>[A,B,B1,B,B2,C,C,D,E]
*>A	*>A	*>A
!	!LO:TX:a:t=P:w źródle '[quarter]=116' po lewej stronie akolady:problem	!
16r	(>16eKL\	.
4r	8.a	.
.	16ccJk	.
=1	=1	=1
*ped	*	*
!LO:TX:b:t=P:znak pedalizacji przed nutą:problem	!	!
.	8qe	p
4AAA	8.eeL)	.
.	16eeJk	.
4c 4E	4cc	.
4B 4E	4dd#Xt>^<	.
*Xped	*	*
.	.	.
.	16qqcc##XLL/	.
.	16qqdd#JJ	.
=2	=2	=2
*ped	*	*
4AA	(>8.eeL	.
.	16eeJk	.
4c 4E	4a	.
4c 4E	4cc)	.
*Xped	*	*
.	.	.
=3	=3	=3
*ped	*	*
4AA	8.bL/	.
.	16bJk	.
4d 4E	4f#X	.
4d 4E	4g#Xt>	.
*Xped	*	*
.	.	.
=4	=4	=4
*ped	*	*
4AA	8a`<L	.
.	16rg	<
.	(<16ek	.
4c 4E	8a`<)	.
.	16rg	.
.	(<16ek	.
4c 4E	8a`<)	.
.	16r	.
*Xped	*	*
!	!LO:TX:b:t=P:w źródle zakończenie łuku w górę:problem	!
.	(16ccJk	[
!!LO:LB:g=original
=5	=5	=5
*ped	*	*
4AA	8ee`>L)	.
.	16rdd	.
.	(>16eeJk	.
4c 4E	4cc)	.
4B 4E	4dd#X^<t>	.
*Xped	*	*
.	.	.
=6	=6	=6
*ped	*	*
4AA	8.eeL	.
.	16eeJk	.
4c 4E	4a\	.
4c 4E	4cc	.
*Xped	*	*
.	.	.
=7	=7	=7
*ped	*	*
4AA	8.bL/	.
.	16bJk	.
4d 4E	4f#X	.
4d 4E	4g#Xt>	.
*Xped	*	*
.	.	.
=8	=8	=8
.	8qa/	.
*ped	*	*
4AA	4aa	.
4c 4E	8.r	.
.	(<16eKL	.
4r	8.a	.
*Xped	*	*
.	16ccJk)	.
=9	=9	=9
*ped	*	*
!LO:TX:b:t=P:znak pedalizacji przed nutą:problem	!	!
.	8qe/	.
4AAA	8.eeL	.
.	16eeJk	.
4c 4E	4cc	.
*Xped	*	*
4B 4E	4dd#X^<t>	.
=10	=10	=10
*ped	*	*
4AA	(>8.eeL	.
.	16eeJk	.
4c 4E	4a\	.
4c 4E	4cc)	.
*Xped	*	*
.	.	.
=11	=11	=11
*ped	*	*
4AA	8.bL/	.
.	16bJk	.
4d 4E	4f#X	.
4d 4E	4g#Xt>	.
*Xped	*	*
.	.	.
!!LO:LB:g=original
=12	=12	=12
*ped	*	*
4AA	8a`<L	.
.	16r	<
.	(<16ek	.
4c 4E	8a`<)	.
.	16r	.
.	(<16ek	.
4c 4E	8a`<)	.
.	16r	.
*Xped	*	*
.	(<16ccJk	[
=13	=13	=13
*ped	*	*
4AA	8ee`>L)	.
.	16rdd	.
.	(>16eeJk	.
4c 4E	4cc)	.
4B 4E	4dd#X^<t>	.
*Xped	*	*
.	.	.
=14	=14	=14
4AA	8.eeL	.
.	16eeJk	.
4c 4E	4a\	.
4c 4E	4cc	.
*Xped	*	*
.	.	.
=15	=15	=15
*ped	*	*
4AA	8.bL/	.
.	16bJk	.
4d 4E	4f#X	.
4d 4E	4g#Xt>	.
*Xped	*	*
.	.	.
=16	=16	=16
.	8qa/	.
4c 4A	4aa	.
4r	8.r	.
.	(>16gKL	.
4r	8.cc	.
.	16eeJk)	.
=17!|:	=17!|:	=17!|:
*>B	*>B	*>B
*ped	*	*
4C	8.ggL	.
.	16ggJk	.
4e 4G	4ee	.
*Xped	*	*
4d#X 4G	4ff#X^<t>	.
.	16qqee#XLL/	.
.	16qqff#JJ	.
=18	=18	=18
*ped	*	*
4C	8.ggL	.
.	16ggJk	.
4e 4G	4ee	.
*Xped	*	*
4d#X 4G	4ff#X^<t>	.
!!LO:LB:g=original
=19	=19	=19
*ped	*	*
4C	8ggL	.
.	16rff	.
.	(>16ggJk	.
4e 4G	4cc)	.
*Xped	*	*
.	.	.
4f 4G	4dd^<	.
=20	=20	=20
.	(<16qqccLL/	.
.	16qqddJJ	.
4C	2.ee)	.
!	!LO:TX:b:Bi:t=rit.	!
(>4e 4G	.	.
4d 4G#X 4E)	.	.
=21	=21	=21
*ped	*	*
!LO:TX:b:t=P:znak pedalizacji przed nutą:problem	!	!
!	!LO:TX:a:B:t=a tempo.	!
.	8qqe/	.
4AAA	8.eeL	p
.	16eeJk	.
4c 4E	4cc	.
4B 4E	4dd#X^<t>	.
*Xped	*	*
.	.	.
=22	=22	=22
*ped	*	*
4AA	(>8.eeL	.
.	16eeJk	.
4c 4E	4a\	.
4c 4E	4cc)	.
*Xped	*	*
.	.	.
=23	=23	=23
*ped	*	*
4AA	8.bL/	.
.	16bJk	.
4d 4E	4f#X	.
*Xped	*	*
4d 4E	4g#Xt>	.
=24	=24	=24
*ped	*	*
4AA	8a`<L	.
.	16r	<
.	(<16ek	.
4c 4E	8a`<)	.
.	16r	.
.	(<16ek	.
4c 4E	8a`<)	.
.	16r	.
*Xped	*	*
.	(<16ccJk	[
=25	=25	=25
*ped	*	*
4AA	8ee`>L)	.
.	16rdd	.
.	(>16eeJk	.
4c 4E	4cc)	.
!	!LO:TX:b:t=P:diminuendolike accent:problem	!
4B 4E	4dd#X^<t>	.
*Xped	*	*
.	.	.
!!LO:LB:g=original
=26	=26	=26
*ped	*	*
4AA	8.eeL	.
.	16eeJk	.
4c 4E	4a\	.
4c 4E	4cc	.
*Xped	*	*
.	.	.
=27	=27	=27
*ped	*	*
4AA	8.bL/	.
.	16bJk	.
4d 4E	4f#X	.
4d 4E	4g#Xt>	.
*Xped	*	*
.	.	.
=28	=28	=28
!!LO:TX:a:B:t=1a.
*>B1	*>B1	*>B1
.	8qa/	.
4AA	4aa	.
8c 8E	8.r	.
8r	.	.
.	(>16gKL	.
4r	8.cc	.
.	16eeJk)	.
=29:|!	=29:|!	=29:|!
!!LO:TX:a:B:t=2a.
*>B2	*>B2	*>B2
.	8qa/	.
4AA	4aa	.
4c 4E	8.r	.
.	(<16eKL	.
4r	8.e	.
.	16eJk)	.
=30!|:	=30!|:	=30!|:
*>C	*>C	*>C
*k[f#c#g#]	*k[f#c#g#]	*
*	*^	*
*ped	*	*	*
!	!LO:TX:b:t=P:w źródle zmiana znaków przykluczowych w tym takcie:problem	!	!
!	!LO:TX:a:B:t=Poco piu mosso.	!	!LO:DY:rj
4E 4AA	8.cc#L	4e 4c#	mf
.	16cc#Jk	.	.
4E 4AA	(>4e	4c#	<
4E 4AA	4a)	4c#	.
=31	=31	=31	=31
4E 4AA	8.cc#L	4e 4c#	.
.	16cc#Jk	.	.
4E 4AA	(>4e	4c#	.
4E 4AA	4a)	4c#	.
*Xped	*	*	*
.	.	.	.
*clefG2	*	*	*
*	*v	*v	*
!!LO:PB:g=original
=32	=32	=32
*^	*	*
!	!	!	!LO:DY:rj
8.eL 8.c#	(<2.A	(>8.eeL 8.cc#	f
16d#XJk 16B#X	.	16dd#XJk 16b#X)	<
4.f# 4.dn	.	(>4.ff# 4.ddn	[
8e 8c#)	.	8ee 8cc#)	>]
=33	=33	=33	=33
.	.	(>16qqdd# 16qqb#XLL/	pp
.	.	16qqff#JJ	.
8.eL 8.c#	(<2.A	8.eeL 8.cc#	<
16d#XJk 16B#X	.	16dd#yJk 16b#y	.
4.f# 4.dn	.	4.ff# 4.ddn	[
.	.	.	>
8e 8c#)	.	8ee 8cc#)	.
.	.	.	]
*clefF4	*	*	*
*v	*v	*	*
=34	=34	=34
*	*^	*
*ped	*	*	*
4E 4AA	8.cc#L	4e 4c#	p
.	16cc#Jk	.	.
4E 4AA	4e	4c#	.
4E 4AA	4a	4c#	.
=35	=35	=35	=35
4E 4AA	8.cc#L	4e 4c#	<
.	16cc#Jk	.	.
4E 4AA	4e	4c#	.
4E 4AA	4a	4c#	[
*Xped	*	*	*
.	.	.	.
*	*v	*v	*
=36	=36	=36
*^	*	*
*ped	*	*	*
(>8.G#L	[<4GG#	(<8.cc#L 8.e	mf
!	!	!LO:TX:b:t=P:w źródle crescendo zaczyna się od 8qb# 8qd#:problem	!
16G#Jk	.	16b#XJk 16d#X)	<
.	.	8qb# 8qd#/	.
*Xped	*	*	*
2G#)	4GG#]	4.dd#X 4.f#	[
.	4C#	.	>
.	.	8cc# 8e	]
=37	=37	=37	=37
*ped	*	*	*
(>8.G#L	[<4GG#	8.cc#L 8.e	pp <
16G#Jk	.	16b#XJk 16d#X	.
*Xped	*	*	*
2G#)	4GG#]	4dd#X 4f#	[
.	.	.	>
.	4C#	4cc# 4e	]
*v	*v	*	*
!!LO:LB:g=original
=38:|!	=38:|!	=38:|!
*>D	*>D	*>D
*	*^	*
!	!LO:TX:b:Bi:t=legatis.	!	!
4B 4BB	(>8.ddnL	4f# 4dn	.
.	16ddJk	.	.
4B 4E	4b	4g#X 4d	.
4B 4E	4ee)	4g# 4d	.
=39	=39	=39	=39
*ped	*	*	*
!LO:TX:b:t=P:znak pedalizacji przed nutą na kresce taktowej:problem	!	!	!
4A 4E 4AA	8.cc#L	4e 4c#	.
.	16cc#Jk	.	.
4E 4AA	4e	4c#	.
*Xped	*	*	*
4E 4AA	4a	4c#	.
=40	=40	=40	=40
4F# 4AA/	8.bL	4f# 4d#X	<
.	16bJk	.	.
4G# 4AA/	4b	4fn 4dn	[
4G# 4AA/	4b	4e 4d	.
=41	=41	=41	=41
*ped	*	*	*
4A 4AA	8.cc#L	4e 4c#	.
.	16cc#Jk	.	.
4E 4AA	4e	4c#	.
*Xped	*	*	*
4E 4AA	4a	4c#	.
=42	=42	=42	=42
4F# 4AA	8.ddL	4a 4d	>
.	16ddJk	.	.
4Fn 4AA	4b	4a 4d	.
4E 4AA	4ee	4g#X 4d	]
=43	=43	=43	=43
*ped	*	*	*
!	!LO:TX:b:Bi:t=poco a poco riten.:dur=5q:ext=s:problem:text with extention lines	!	!
4E 4AA	(>8.cc#L	4e 4c#	.
.	16cc#Jk	.	.
4E 4AA	4e	4c#	.
*Xped	*	*	*
4E 4AA	4a)	4c#	.
=44	=44	=44	=44
4F# 4AA/	8.bL	4f# 4d#X	.
.	16bJk	.	.
4G#X 4AA/	4b	4fn 4dn	.
4G# 4AA/	4b	4e 4d	.
!!LO:LB:g=original
=45	=45	=45	=45
4A 4AA	8.cc#L	4e 4c#	.
.	16cc#Jk	.	.
4E 4AA	4e	4c#	.
4E 4AA	4a	4c#	.
*	*v	*v	*
=46||	=46||	=46||
*>E	*>E	*>E
*k[]	*k[]	*
*ped	*	*
!	!LO:TX:a:B:t=tempo 1º.	!
!LO:TX:b:t=P:znak pedalizacji przed nutą:problem	!	!
.	8qe	.
4AAA	8.eeL)	p
.	16eeJk	.
4c 4E	4cc	.
4B 4E	4dd#Xt>^<	.
*Xped	*	*
.	.	.
=47	=47	=47
*ped	*	*
4AA	(>8.eeL	.
.	16eeJk	.
4c 4E	4a\	.
4c 4E	4cc)	.
*Xped	*	*
.	.	.
=48	=48	=48
*ped	*	*
4AA	8.bL/	.
.	16bJk	.
4d 4E	4f#X	.
4d 4E	4g#Xt>	.
*Xped	*	*
.	.	.
=49	=49	=49
*ped	*	*
4AA	8a`<L	<
.	16rg	.
.	(<16ek	.
4c 4E	8a`<)	.
.	16rg	.
.	(<16ek	.
4c 4E	8a`<)	.
.	16r	[
*Xped	*	*
.	(>16ccJk	.
=50	=50	=50
*ped	*	*
4AA	8ee`>L)	.
.	16rdd	.
.	(>16eeJk	.
4c 4E	4cc)	.
4B 4E	4dd#X^<t>	.
*Xped	*	*
.	.	.
=51	=51	=51
*ped	*	*
4AA	8.eeL	.
.	16eeJk	.
4c 4E	4a\	.
4c 4E	4cc	.
*Xped	*	*
.	.	.
!!LO:LB:g=original
=52	=52	=52
*ped	*	*
4AA	8.bL/	.
.	16bJk	.
4d 4E	4f#X	.
4d 4E	4g#Xt>	.
*Xped	*	*
.	.	.
=53	=53	=53
.	8qa/	.
4c 4A	4aa	.
4r	8.r	.
.	(>16gKL\	.
4r	8.cc	.
.	16eeJk)	.
=54	=54	=54
*ped	*	*
4C	8.ggL	.
.	16ggJk	.
4e 4G	4ee	.
*Xped	*	*
.	.	.
4d#X 4G	4ff#X^<t>	.
=55	=55	=55
*ped	*	*
4C	8.ggL	.
.	16ggJk	.
4e 4G	4ee	.
*Xped	*	*
.	.	.
4d#X 4G	4ff#X^<t>	.
=56	=56	=56
*ped	*	*
4C	8ggL	.
.	16rff	.
.	(>16ggJk	.
4e 4G	4cc)	.
*Xped	*	*
.	.	.
4f 4G	4dd^<	.
=57	=57	=57
.	(<16qqccLL/	.
.	16qqddJJ	.
4C	2.ee)	.
!	!LO:TX:b:Bi:t=rit	!
(>4e 4G	.	.
4d 4G#X 4E)	.	.
=58	=58	=58
*ped	*	*
!LO:TX:b:t=P:znak pedalizacji przed nutą:problem	!	!
!	!LO:TX:a:B:t=a tempo.	!
.	8qqe/	.
4AAA	8.eeL	p
.	16eeJk	.
4c 4E	4cc	.
4B 4E	4dd#X^<t>	.
*Xped	*	*
.	.	.
!!LO:LB:g=original
=59	=59	=59
*ped	*	*
4AA	(>8.eeL	.
.	16eeJk	.
4c 4E	4a\	.
4c 4E	4cc)	.
*Xped	*	*
=60	=60	=60
*ped	*	*
4AA	8.bL/	.
.	16bJk	.
4d 4E	4f#X	.
*Xped	*	*
4d 4E	4g#Xt>	.
=61	=61	=61
*ped	*	*
4AA	8a`<L	.
.	16rg	.
.	(<16ek	.
4c 4E	8a`<)	.
.	16rg	.
.	(<16ek	.
4c 4E	8a`<)	.
.	16rg	.
*Xped	*	*
.	(<16ccJk	.
=62	=62	=62
*ped	*	*
4AA	8ee`>L)	.
.	16rdd	.
.	(>16eeJk	.
4c 4E	4cc)	.
4B 4E	4dd#X^<t>	.
*Xped	*	*
.	.	.
=63	=63	=63
*ped	*	*
4AA	8.eeL	.
.	16eeJk	.
4c 4E	4a\	.
4c 4E	4cc	.
*Xped	*	*
.	.	.
=64	=64	=64
*ped	*	*
4AA	8.bL/	.
.	16bJk	.
4d 4E	4f#X	.
4d 4E	4g#Xt>	.
*Xped	*	*
.	.	.
=65	=65	=65
.	8qa/	.
4AA	4aa	.
4c 4E	4r	.
4r	4r	.
==	==	==
*-	*-	*-
!!title: @{OTL}; @{OPS} @{ONM} publisher: @{PPR}
!!!RDF**kern: > = above
!!!RDF**kern: < = below
!!!RDF**kern: N = linked
!!!RDF**dynam: > = "dim." fontstyle="bold-italic"
!!!RDF**dynam: < = "cresc." fontstyle="bold-italic"
!!!ENC: Wojciech Jakubiak-Danek
!!!END: 2020-02-10
!!!EED: Emilia Ziętek
!!!EST: 2020-02-24
!!!rism-genre: Mazurka
!!!rism-key: A minor
!!!rism-opus: op. 68, no. 2
!!!rism-title: Mazurka in A minor op. 68, no. 2
!!!rism-permalink: https://opac.rism.info/search?id=300605107&View=rism
!!!rism-773a-OPR: 300605105
!!!rism-parent-permalink: https://opac.rism.info/search?id=300605105&View=rism
